X: 3
T: The Lark In The Morning
R: jig
M: 6/8
L: 1/8
K: Dmaj
~A3 AdB|AFA D2 D|daf g{a}ge|fdB BAF|~A3 AdB|AFA D2 f|g{a}ge fed|edB BAF:|Adf ~a3|abf a2 z|Adf a2 f|gfe fdB|Adf ~a3|abf a2 f|g{a}ge fed|edB BAF:|


Tune 1578	Setting 1578

